X:1
T:Lobe den Herren, 14.14.4.7.8
T:Lobe den Herren, 14.14.4.7.8
T:Stralsund Gesangbuch, 1665
T:Public Domain Courtesy of the Cyber Hymnal™
C:Stralsund Gesangbuch, 1665
Z:Public Domain
Z:Courtesy of the Cyber Hymnal™
%%score ( 1 2 ) ( 3 4 )
L:1/8
Q:1/4=113
M:3/4
K:G
V:1 treble 
V:2 treble 
V:3 bass 
V:4 bass 
V:1
|: [DG]2 [EG]2 [Dd]2 | [DB]3 [FA] [EG]2 | [DF]2 [CE]2 [B,D]2 | [CE]2 [CF]2 [B,G]2 | A6 | [B,G]6 :| %6
 [Dd]2 [Fd]2 [Gd]2 | [Ge]6 | [GB]2 [Gc]2 [Fd]2 | d3 z c [DB]2 [DA]6 | D2 [CE]2 [CF]2 | %11
 [B,G]2 [DA]2 [DB]2 | A6 | [B,G]6 |] %14
V:2
|: x6 | x6 | x6 | x6 | (E4 DC) | x6 :| x6 | x6 | x6 | (GF) E2 x9 | D2 x4 | x6 | (E4 DC) | x6 |] %14
V:3
|: [G,B,]2 [E,B,]2 [F,A,]2 | [G,D]3 [D,C] [E,B,]2 | (B,A,) [C,G,]2 [G,,G,]2 | %3
 [C,G,]2 [A,,A,]2 [E,G,]2 | G,2 E,2 [D,F,]2 | [G,,G,]6 :| [G,B,]2 [A,C]2 [B,D]2 | [G,C]6 | %8
 [G,D]2 [E,C]2 [D,A,]2 | [B,,G,]2 [C,G,]2 [G,,G,]2 [D,F,]6 x | [B,,G,]2 [C,G,]2 [A,,A,]2 | %11
 [E,G,]2 [D,F,]2 [B,,G,]2 | (E,2 A,G, [D,F,]2) | [G,,G,]6 |] %14
V:4
|: x6 | x6 | B,,2 x4 | x6 | C,4 x2 | x6 :| x6 | x6 | x6 | x13 | x6 | x6 | C,4 x2 | x6 |] %14

